X: 11221
T: The BOUQUET QUADRILLES No. 2.--le Pantalon.
T: Composed for Brass Instruments
C: T.H.
P: The Rose.
%R: jig
B: W. Hamilton "Universal Tune-Book" Vol. 1 Glasgow 1844 p.122 #1
S: http://imslp.org/wiki/Hamilton's_Universal_Tune-Book_(Various)
Z: 2016 John Chambers <jc:trillian.mit.edu>
N: The 2nd strain has unusual beaming; not fixed.
M: 6/8
L: 1/8
K: C
% - - - - - - - - - - - - - - - - - - - - - - - - -
E/F/ !segno!|:\
!p!(GA)G Gce | (GA)G Gce | (g2^f) g2d | "_>"e3 "_>"c3 !f!|\
(GA)G Gce | (GA)G Gce | (g^f)g (GA)B | cGe c2 H:|
e |\
fz ed zf | ez dc ze | dz cB zd | cz de ze |\
fz ed zf | ez dc ze | dz cB zd | ced (c"^D.C."B)A !segno!|]
!ff!e |\
ee/e/e ee/e/e | e3 !p! B | (c2B) A(ed) | c3 B3 |\
!ff!ee/e/ ee/e/e | e3 !p!B3 | (A2B) (cB)A | e3 "^D.C."e3 !segno!|]
% - - - - - - - - - - - - - - - - - - - - - - - - -

%%sep 1 1 500
%%sep 1 1 500

